X:1
T:[ID 8-89a]
T:[ID 8-89a]
T:Bezeichnung standardisiert: Menuett Menuet ex A. dur. \"Ahnlich in dieser Quelle: ID 2-8a;
T:Urheber unbekannt Datum in der hier transkribierten schriftlichen Quelle: 1796
C:Urheber unbekannt
C:Datum in der hier transkribierten schriftlichen Quelle: 1796
L:1/8
M:3/4
K:A
V:1 treble 
V:1
 A2 A2 a2 | e4 ce | dcdBAG | A2 c2 e2 | A2 A2 a2 | e4 ce | d2 B2 G2 | A6 :: dBGEGB | A2 c2 e2 | %10
 dBGEGB | A2 c2 e2 | A2 A2 a2 | e4 ce | d2 B2 G2 | A6 :| %16

